X:1
T:Bessie of Ballydubray
M:3/4
L:1/4
K:D
 A| A d d| A F A| A c B| A2 A| A d d| d A F| F G B| A2 A/2A/2| d d d|\
 A F F| F F B| A2 A| A G F| E C C| E D D| D2||
